fs/system_20_regular.svg

<svg viewBox="0 0 20 20" fill="none" xmlns="http://www.w3.org/2000/svg" height="1em" width="1em">
  <path d="M2 6.5C2 5.11929 3.11929 4 4.5 4H15.5C16.8807 4 18 5.11929 18 6.5V13.5C18 14.8807 16.8807 16 15.5 16H4.5C3.11929 16 2 14.8807 2 13.5V6.5ZM4.5 5C3.67157 5 3 5.67157 3 6.5V13.5C3 14.3284 3.67157 15 4.5 15H15.5C16.3284 15 17 14.3284 17 13.5V6.5C17 5.67157 16.3284 5 15.5 5H4.5Z" fill="#212121"/>
</svg>

<svg viewBox="0 0 20 20" fill="none" xmlns="http://www.w3.org/2000/svg" height="1em" width="1em">
  <path d="M2 6.5A2.5 2.5 0 0 1 4.5 4h11A2.5 2.5 0 0 1 18 6.5v7a2.5 2.5 0 0 1-2.5 2.5h-11A2.5 2.5 0 0 1 2 13.5v-7ZM4.5 5A1.5 1.5 0 0 0 3 6.5v7A1.5 1.5 0 0 0 4.5 15h11a1.5 1.5 0 0 0 1.5-1.5v-7A1.5 1.5 0 0 0 15.5 5h-11Z" fill="#212121"/>
</svg>
